X:834
T:Brosna slide 2
R:Slide
O:Ireland
S:Richard Darsie
Z:Transcription, chords:Mike Long
M:12/8
L:1/8
K:G
G2A|\
"G"B2B cBA G2E D2D|"C"EFG A2B "D"c2B AGA|\
"G"B2B cBA G2E D2D|"C"EFG "D"AFD "G"G3:|
|:GFE|\
"G"D2B BAB d2B BAB|"D"D2F A2B c2B AGA|\
"G"D2B BAB d2B BAG|"D/C"A2A "D"DEF "G"G3:|
